X: 11653
T: Eileen O'Callaghan's
R: reel
M: 4/4
K: Gmajor
|:FA|G2 B>G D>GB>G|D>G (3Bcd c>AF>A|G>B (3BBB d>B (3BBB|d>e (3fed c>A:|
(3FGA|d2 g>f g2 f>g|a>d^c>d a>d (3gfe|d>g (3ggg B>g (3ggg|d>ef>d c>AF>A|
d>gg>f (3gag f>g|a>ba>g f>ga>f|b>g (3ggg d>B (3BBB|(3gfe d>B (3cBA||

